!!!SOCIAL_FUNCTION:	misc songs
!!!PDT:	1936
!!!OTL: No_67_Woman_on_a_White_Horse.krn
!!!REG: Oklahoma and Montana
!!!LANG: Tone
!!!LING_GROUP: Algonquin
**kern
*staff1
=1-
*clefF4
*k[f#c#]
*M6/8
2r
8r
8A\
=2
8e\L
8e\
16e\L
16e\JJ
4e\
8e\
=3
*M2/4
16f#\LK
8.e\J
8.d\L
16B\Jk
=4
*M7/8
8A\L
8A\J
4.A\
8r
8d\
=5
*M5/8
8B\L
8B\J
4B\
8B\
=6
*M2/4
16d\LK
8.B\J
8.A\L
16F#\Jk
=7
2E\
=8
4.r
8B\
=9
*M5/8
8A\L
8A\J
4A\
8A\
=10
*M2/4
8B\L
8B\J
8.A\L
16F#\Jk
=11
8E\L
8E\J
8F#\L
8E\J
=12
8D\L
8D\J
[4D\
=13
2D\]
==
*-
